X: 377
T: Beaumont Rag
C:David Harvey
B: jims roots
M:4/4
L:1/8
Q: 1/4=100
K:D
V:1 
%N:From "AKUS Live"  TablEdited by Mike Stangeland
%Q:440
"A"gfgf e2ed | cdcB A4 | "D"=f^f=f^f dBAd | BAFG A4 |
"A"EFGA zBAG | EFGA zBAF | "D"DEFG ABAF | BAF(A A4) ||
"A"gfgf e2ed | cdcB ABAf | "D"=f^f=f^f dBAd | BAFE DE=F^F |
"G"GFGA Bded | "D"=fdef edBA | "A"dBAd BAFE | "D"D2A,2 B,2=C2 ||
"A"CEAC EBCE | ACEB CEA2 | "D"DFAD FBDF | ADFB DFA2 |
"A"CEAC EBCE | ACEB CEA2 | "D"DFG,^G, A,B,=C^C | DEFE D2B,=C |
"A"CEAC EBCE | ACEB CEA2 | "D"DFAD FBDF | "D"ADFB DFA2 |
"G"GFGA Bded | "D"=fdef edBA | "A"dBAd BAFE | "D"D8 ||
% abcbook-tune_id 6298c245b63a0a196411a34f


% abcbook-boost 0
% abcbook-tablature 
% abcbook-transpose 
% abcbook-lastupdated 1654178373263
% abcbook-soundfonts 
% abcbook-repeats 1


